X: 36469
T: See Emily Fly
R: slide
M: 12/8
K: Bminor
Bdf g2f Bdf g2f|e3 efe c2B A2c|
Bdf g2f Bdf g2f|1 efe c2A B3 B2A:|2 efe c2A B3 Bde||
|:f2b bag f2d def|efe efg g2f fde|
f2b bag f2d def|1 efe c2A B3 Bde:|2 efe c2A B3 B3||
|:c2A ced c2A cde|f2B g2e f2d B2d|
c2A ced c2A edc|dcB c2A B3 B3:|

